build/assets/images/proyectos/logos/logo-divina-pastora-seguros.svg

<svg width="200" height="200" viewBox="0 0 200 200" fill="none" xmlns="http://www.w3.org/2000/svg">
<rect width="200" height="200" fill="white"/>
<path d="M117.581 110.349C117.744 111 118.558 111.651 119.535 111.651C120.837 111.651 121.326 111 121.326 110.349C121.326 110.023 121.163 109.698 120.837 109.372C120.512 109.209 120.023 108.884 119.209 108.558C117.744 107.907 117.093 107.419 117.093 106.116C117.093 104.814 118.07 104 119.535 104C120.674 104 121.488 104.488 121.814 105.465L120.837 105.954C120.512 105.465 120.023 105.14 119.535 105.14C118.721 105.14 118.233 105.465 118.233 106.116C118.233 106.768 118.721 107.093 120.023 107.582C121.651 108.233 122.465 108.884 122.465 110.186C122.465 111.488 121.488 112.465 119.535 112.465C118.07 112.465 116.767 111.814 116.442 110.512L117.581 110.349Z" fill="black"/>
<path d="M123.116 108.558C123.116 107.256 123.442 106.279 124.256 105.465C125.07 104.651 126.047 104.326 127.186 104.326C128.326 104.326 129.14 104.651 129.791 105.465C130.442 106.279 130.767 107.256 130.767 108.395C130.767 108.558 130.767 108.721 130.767 108.884H124.256C124.256 110.674 125.395 111.814 127.186 111.814C128.326 111.814 128.977 111.488 129.628 110.674L130.442 111.488C129.628 112.465 128.488 112.953 127.186 112.953C126.047 112.953 125.07 112.628 124.256 111.814C123.442 110.837 123.116 109.86 123.116 108.558ZM129.628 107.744C129.628 107.093 129.465 106.605 128.977 106.116C128.488 105.628 127.837 105.465 127.186 105.465C126.372 105.465 125.884 105.628 125.233 106.116C124.744 106.605 124.419 107.093 124.419 107.744H129.628Z" fill="black"/>
<path d="M132.395 113.93C133.372 114.582 134.512 115.07 135.651 115.07C136.465 115.07 137.116 114.907 137.605 114.419C138.093 113.93 138.419 113.116 138.419 111.977V111.326C137.93 112.14 136.953 112.791 135.488 112.791C134.349 112.791 133.372 112.465 132.558 111.651C131.744 110.837 131.419 109.861 131.419 108.558C131.419 107.419 131.744 106.279 132.558 105.628C133.372 104.814 134.349 104.489 135.488 104.489C136.953 104.489 137.93 105.14 138.419 105.954V104.814H139.558V111.489C139.558 112.465 139.395 113.442 139.233 113.93C139.07 114.582 138.744 115.07 138.256 115.558C137.605 116.047 136.628 116.372 135.488 116.372C134.023 116.372 132.721 115.884 131.744 115.07L132.395 113.93ZM137.605 110.675C138.256 110.023 138.419 109.372 138.419 108.395C138.419 107.582 138.093 106.768 137.605 106.116C137.116 105.465 136.302 105.14 135.488 105.14C134.674 105.14 134.023 105.465 133.372 105.954C132.884 106.605 132.558 107.256 132.558 108.233C132.558 109.047 132.884 109.861 133.372 110.512C133.86 111.163 134.674 111.326 135.488 111.326C136.465 111.489 137.116 111.326 137.605 110.675Z" fill="black"/>
<path d="M140.86 104.489H142V109.372C142 110.675 142.814 111.651 143.953 111.651C145.256 111.651 146.07 110.675 146.233 109.372V104.489H147.372V110.675C147.372 111.326 147.535 111.651 148.023 111.651C148.186 111.651 148.349 111.651 148.512 111.651V112.628C148.349 112.628 148.023 112.791 147.698 112.791C147.209 112.791 146.884 112.628 146.721 112.465C146.558 112.302 146.395 111.977 146.395 111.651C145.907 112.465 145.093 112.791 143.791 112.791C142 112.791 140.86 111.651 140.86 109.698V104.489Z" fill="black"/>
<path d="M149.326 112.628V104.488H150.465V105.791C150.954 104.814 151.768 104.326 152.907 104.326C153.07 104.326 153.233 104.326 153.395 104.326V105.628C153.233 105.628 152.907 105.628 152.581 105.628C151.279 105.628 150.465 106.605 150.465 107.907V112.628H149.326Z" fill="black"/>
<path d="M153.558 108.558C153.558 107.419 154.046 106.279 154.86 105.465C155.674 104.651 156.651 104.163 157.953 104.163C159.093 104.163 160.233 104.651 161.046 105.465C161.86 106.279 162.349 107.256 162.349 108.558C162.349 109.698 161.86 110.837 161.046 111.651C160.233 112.465 159.256 112.791 157.953 112.791C156.814 112.791 155.674 112.302 154.86 111.488C153.884 110.837 153.558 109.698 153.558 108.558ZM154.698 108.558C154.698 109.535 155.023 110.186 155.512 110.837C156.163 111.488 156.814 111.814 157.791 111.814C158.767 111.814 159.419 111.488 160.07 111C160.721 110.349 160.884 109.698 160.884 108.721C160.884 107.744 160.558 107.093 160.07 106.442C159.419 105.791 158.767 105.465 157.791 105.465C156.814 105.465 156.163 105.791 155.512 106.442C155.023 106.93 154.698 107.581 154.698 108.558Z" fill="black"/>
<path d="M163.488 110.512C163.651 111.163 164.465 111.814 165.442 111.814C166.744 111.814 167.233 111.163 167.233 110.512C167.233 110.186 167.07 109.861 166.744 109.535C166.419 109.372 165.93 109.047 165.116 108.721C163.651 108.07 163 107.581 163 106.279C163 104.977 163.977 104.163 165.442 104.163C166.581 104.163 167.395 104.651 167.721 105.628L166.744 106.116C166.419 105.628 165.93 105.302 165.442 105.302C164.628 105.302 164.14 105.628 164.14 106.279C164.14 106.93 164.628 107.256 165.93 107.744C167.558 108.395 168.372 109.047 168.372 110.349C168.372 111.651 167.395 112.628 165.442 112.628C163.977 112.628 162.674 111.977 162.349 110.674L163.488 110.512Z" fill="black"/>
<path d="M42.8605 83.8146H40.0931V90.0006C39.6047 88.8611 38.3024 88.0471 36.3489 88.0471C34.721 88.0471 33.2558 88.6983 32.1163 89.8378C30.9768 90.9774 30.4884 92.4425 30.4884 94.2332C30.4884 96.0239 30.9768 97.489 32.1163 98.6285C33.2558 99.7681 34.721 100.419 36.3489 100.419C38.3024 100.419 39.6047 99.7681 40.4186 98.6285C40.5814 99.2797 40.907 99.7681 41.3954 100.094C41.8838 100.419 42.3721 100.419 43.0233 100.419L42.8605 83.8146ZM39.1163 96.8378C38.4651 97.489 37.4884 97.8146 36.5117 97.8146C35.5349 97.8146 34.721 97.489 34.0698 96.8378C33.4186 96.1867 33.0931 95.2099 33.0931 94.2332C33.0931 93.2564 33.4186 92.2797 34.0698 91.6285C34.721 90.9774 35.5349 90.6518 36.5117 90.6518C37.4884 90.6518 38.4651 90.9774 39.1163 91.6285C39.7675 92.2797 40.0931 93.2564 40.0931 94.2332C40.0931 95.2099 39.7675 96.1867 39.1163 96.8378Z" fill="black"/>
<path d="M45.9536 86.9071C46.9303 86.9071 47.5815 86.2559 47.5815 85.2792C47.5815 84.3024 46.7675 83.6512 45.9536 83.6512C44.9768 83.6512 44.3257 84.3024 44.3257 85.2792C44.1629 86.2559 44.9768 86.9071 45.9536 86.9071Z" fill="black"/>
<path d="M47.4187 88.535H44.6512V97.4885C44.6512 99.442 45.628 100.419 47.4187 100.419V88.535Z" fill="black"/>
<path d="M61.2558 87.0698C62.2326 87.0698 62.8837 86.4186 62.8837 85.4419C62.8837 84.4651 62.0698 83.814 61.2558 83.814C60.2791 83.814 59.6279 84.4651 59.6279 85.4419C59.6279 86.2558 60.2791 86.907 61.2558 87.0698Z" fill="black"/>
<path d="M62.3954 88.535H59.6279V97.4885C59.6279 99.442 60.6047 100.419 62.3954 100.419C62.3954 100.419 62.3954 100.419 62.5582 100.419L62.3954 88.535Z" fill="black"/>
<path d="M70.5349 88.2095C68.907 88.2095 67.7675 89.1862 67.1163 90.3258V88.6978H64.3489V100.582H67.1163V93.7444C67.1163 92.1164 68.2559 90.9769 69.721 90.9769C71.3489 90.9769 72.1628 91.9537 72.1628 93.5816V97.4885C72.1628 99.6048 73.1396 100.582 74.9303 100.582V92.7676C74.9303 90.0002 73.1396 88.2095 70.5349 88.2095Z" fill="black"/>
<path d="M88.6046 88.5351H85.8372V90.163C85.3488 89.0234 84.0465 88.2095 82.093 88.2095C80.4651 88.2095 79 88.8606 77.8605 90.0002C76.7209 91.1397 76.2325 92.6048 76.2325 94.3955C76.2325 96.1862 76.7209 97.6513 77.8605 98.7909C79 99.9304 80.4651 100.582 82.093 100.582C84.0465 100.582 85.3488 99.9304 86.1628 98.7909C86.3256 99.442 86.6511 99.9304 87.1395 100.256C87.4651 100.582 88.1163 100.582 88.7674 100.582L88.6046 88.5351ZM85.0232 97.0002C84.3721 97.6513 83.3953 97.9769 82.4186 97.9769C81.4418 97.9769 80.6279 97.6513 79.9767 97.0002C79.3256 96.349 79 95.3723 79 94.3955C79 93.4188 79.3256 92.442 79.9767 91.7909C80.6279 91.1397 81.4418 90.8141 82.4186 90.8141C83.3953 90.8141 84.2093 91.1397 85.0232 91.7909C85.6744 92.442 86 93.4188 86 94.3955C86 95.3723 85.6744 96.1862 85.0232 97.0002Z" fill="black"/>
<path d="M58.9768 86.9071C58.9768 86.9071 58 86.9071 57.6745 86.9071C56.6977 86.9071 56.0465 87.7211 55.721 88.3722C55.3954 89.0234 53.1163 96.349 53.1163 96.349C53.1163 96.349 52.1396 94.0699 51.814 93.4187C51.4884 92.7676 50.6745 92.2792 49.6977 92.2792C49.3721 92.2792 48.3954 92.2792 48.3954 92.2792L52.1396 100.256H54.5814L58.9768 86.9071Z" fill="black"/>
<path d="M155.023 88.3722C153.395 88.3722 152.093 89.1861 151.442 90.3257V89.8373V88.535H148.674V98.1396C148.837 99.6047 149.814 100.419 151.442 100.419V94.0699C151.442 93.9071 151.442 93.7443 151.442 93.7443C151.605 91.9536 152.744 90.9768 154.698 90.9768C155.186 90.9768 155.512 90.9768 155.837 91.1396V88.3722C155.674 88.3722 155.349 88.3722 155.023 88.3722Z" fill="black"/>
<path d="M131.907 88.5349V83.9768H129.14V88.5349H127.674V91.1396H129.14V97.6512C129.14 99.6047 130.116 100.581 131.907 100.581C131.907 100.581 131.907 100.581 132.07 100.581V96.6745C132.07 96.5117 132.07 96.5117 132.07 96.3489V91.1396H134.674V88.5349H131.907Z" fill="black"/>
<path d="M113.837 90.163C113.349 89.0234 112.047 88.2095 110.093 88.2095C108.465 88.2095 107 88.8606 105.861 90.0002C104.721 91.1397 104.233 92.6048 104.233 94.3955C104.233 96.1862 104.721 97.6513 105.861 98.7909C107 99.9304 108.465 100.582 110.093 100.582C112.047 100.582 113.349 99.9304 114.163 98.7909C114.326 99.442 114.651 99.9304 115.14 100.256C115.628 100.582 116.116 100.582 116.768 100.582V88.5351H113.837V90.163ZM113.023 97.0002C112.372 97.6513 111.395 97.9769 110.419 97.9769C109.442 97.9769 108.628 97.6513 107.977 97.0002C107.326 96.349 107 95.3723 107 94.3955C107 93.4188 107.326 92.442 107.977 91.7909C108.628 91.1397 109.442 90.8141 110.419 90.8141C111.395 90.8141 112.372 91.1397 113.023 91.7909C113.675 92.442 114 93.4188 114 94.3955C114.163 95.3723 113.675 96.349 113.023 97.0002Z" fill="black"/>
<path d="M165.767 88.6978V90.4885C165.279 89.349 163.977 88.535 162.023 88.535C160.395 88.535 158.93 89.1862 157.791 90.3257C156.651 91.4653 156.163 92.9304 156.163 94.7211C156.163 96.5118 156.651 97.9769 157.791 99.1164C158.93 100.256 160.395 100.907 162.023 100.907C163.977 100.907 165.279 100.256 166.093 99.1164C166.256 99.7676 166.581 100.256 167.07 100.582C167.558 100.907 168.047 100.907 168.698 100.907V88.8606L165.767 88.6978ZM164.954 97.1629C164.302 97.8141 163.326 98.1397 162.349 98.1397C161.372 98.1397 160.558 97.8141 159.907 97.1629C159.256 96.5118 158.93 95.535 158.93 94.5583C158.93 93.5815 159.256 92.6048 159.907 91.9536C160.558 91.3025 161.372 90.9769 162.349 90.9769C163.326 90.9769 164.302 91.3025 164.954 91.9536C165.605 92.6048 165.93 93.5815 165.93 94.5583C166.093 95.535 165.605 96.5118 164.954 97.1629Z" fill="black"/>
<path d="M141.023 88.2095C139.233 88.2095 137.767 88.8606 136.465 90.0002C135.326 91.1397 134.674 92.7676 134.674 94.3955C134.674 96.1862 135.326 97.6513 136.465 98.7909C137.767 99.9304 139.233 100.582 141.023 100.582C142.814 100.582 144.279 99.9304 145.581 98.7909C146.884 97.6513 147.535 96.0234 147.535 94.3955C147.535 92.6048 146.884 91.1397 145.744 90.0002C144.442 88.8606 142.977 88.2095 141.023 88.2095ZM143.628 97.163C142.977 97.8141 142 98.1397 141.023 98.1397C140.047 98.1397 139.07 97.8141 138.419 97.0002C137.767 96.349 137.442 95.3723 137.442 94.3955C137.442 93.4188 137.767 92.442 138.419 91.7909C139.07 91.1397 140.047 90.6513 141.023 90.6513C142 90.6513 142.977 90.9769 143.628 91.7909C144.279 92.442 144.605 93.4188 144.605 94.3955C144.767 95.5351 144.442 96.349 143.628 97.163Z" fill="black"/>
<path d="M124.256 93.4188C123.768 93.256 123.116 93.0932 122.791 92.9304C122.465 92.7676 121.977 92.6048 121.814 92.442C121.488 92.2792 121.326 91.9537 121.326 91.6281C121.326 90.9769 121.814 90.6513 122.791 90.6513C123.768 90.6513 124.581 90.9769 125.07 91.6281L126.698 90.0002C125.884 88.8606 124.581 88.2095 122.954 88.2095C121.814 88.2095 120.837 88.5351 120.023 89.1862C119.209 89.8374 118.884 90.6513 118.884 91.7909C118.884 93.4188 119.861 94.3955 121.814 95.0467C122.14 95.2095 122.954 95.3723 123.279 95.5351C123.605 95.6978 124.093 95.8606 124.419 96.0234C124.744 96.1862 125.07 96.5118 125.07 97.0002C125.07 97.6513 124.419 98.3025 122.954 98.3025C122.14 98.3025 121.488 98.1397 121 97.8141C119.861 97.3258 119.209 97.4885 118.558 97.9769C118.395 98.1397 118.07 98.4653 118.07 98.4653C118.884 99.7676 120.512 100.744 122.791 100.744C126.047 100.744 127.674 99.1164 127.674 97.0002C127.349 95.2095 126.372 94.2327 124.256 93.4188Z" fill="black"/>
<path d="M90.7209 97V104.488C90.8837 104.488 91.0465 104.488 91.2093 104.488H90.7209V97Z" fill="black"/>
<path d="M101.465 89.8372C100.326 88.6977 98.8605 88.0465 97.2326 88.0465C95.2791 88.0465 93.814 88.8605 93.4884 90V88.2093H90.7209V97V104.488H91.2093C92.6744 104.326 93.4884 103.512 93.6512 101.884C93.6512 101.721 93.6512 98.3023 93.6512 98.3023C94.1396 99.4419 95.4419 100.256 97.3954 100.256C99.0233 100.256 100.488 99.6046 101.628 98.4651C102.767 97.3256 103.419 95.8605 103.419 94.0698C103.093 92.4419 102.605 90.9767 101.465 89.8372ZM99.3489 96.8372C98.6977 97.4884 97.8837 97.814 96.907 97.814C95.9303 97.814 95.1163 97.4884 94.3023 96.8372C93.6512 96.186 93.3256 95.2093 93.3256 94.2326C93.3256 93.2558 93.6512 92.2791 94.3023 91.6279C94.9535 90.9767 95.9303 90.6512 96.907 90.6512C97.8837 90.6512 98.6977 90.9767 99.3489 91.6279C100 92.2791 100.326 93.2558 100.326 94.2326C100.326 95.2093 100 96.186 99.3489 96.8372Z" fill="black"/>
</svg>

<svg width="200" height="200" fill="none" xmlns="http://www.w3.org/2000/svg"><path fill="#fff" d="M0 0h200v200H0z"/><path d="M117.581 110.349c.163.651.977 1.302 1.954 1.302 1.302 0 1.791-.651 1.791-1.302 0-.326-.163-.651-.489-.977-.325-.163-.814-.488-1.628-.814-1.465-.651-2.116-1.139-2.116-2.442 0-1.302.977-2.116 2.442-2.116 1.139 0 1.953.488 2.279 1.465l-.977.489c-.325-.489-.814-.814-1.302-.814-.814 0-1.302.325-1.302.976 0 .652.488.977 1.79 1.466 1.628.651 2.442 1.302 2.442 2.604s-.977 2.279-2.93 2.279c-1.465 0-2.768-.651-3.093-1.953l1.139-.163zm5.535-1.791c0-1.302.326-2.279 1.14-3.093.814-.814 1.791-1.139 2.93-1.139 1.14 0 1.954.325 2.605 1.139.651.814.976 1.791.976 2.93v.489h-6.511c0 1.79 1.139 2.93 2.93 2.93 1.14 0 1.791-.326 2.442-1.14l.814.814c-.814.977-1.954 1.465-3.256 1.465-1.139 0-2.116-.325-2.93-1.139-.814-.977-1.14-1.954-1.14-3.256zm6.512-.814c0-.651-.163-1.139-.651-1.628-.489-.488-1.14-.651-1.791-.651-.814 0-1.302.163-1.953.651-.489.489-.814.977-.814 1.628h5.209zm2.767 6.186c.977.652 2.117 1.14 3.256 1.14.814 0 1.465-.163 1.954-.651.488-.489.814-1.303.814-2.442v-.651c-.489.814-1.466 1.465-2.931 1.465-1.139 0-2.116-.326-2.93-1.14-.814-.814-1.139-1.79-1.139-3.093 0-1.139.325-2.279 1.139-2.93.814-.814 1.791-1.139 2.93-1.139 1.465 0 2.442.651 2.931 1.465v-1.14h1.139v6.675c0 .976-.163 1.953-.325 2.441-.163.652-.489 1.14-.977 1.628-.651.489-1.628.814-2.768.814-1.465 0-2.767-.488-3.744-1.302l.651-1.14zm5.21-3.255c.651-.652.814-1.303.814-2.28 0-.813-.326-1.627-.814-2.279-.489-.651-1.303-.976-2.117-.976-.814 0-1.465.325-2.116.814-.488.651-.814 1.302-.814 2.279 0 .814.326 1.628.814 2.279.488.651 1.302.814 2.116.814.977.163 1.628 0 2.117-.651zm3.255-6.186H142v4.883c0 1.303.814 2.279 1.953 2.279 1.303 0 2.117-.976 2.28-2.279v-4.883h1.139v6.186c0 .651.163.976.651.976h.489v.977c-.163 0-.489.163-.814.163-.489 0-.814-.163-.977-.326a1.242 1.242 0 01-.326-.814c-.488.814-1.302 1.14-2.604 1.14-1.791 0-2.931-1.14-2.931-3.093v-5.209zm8.466 8.139v-8.14h1.139v1.303c.489-.977 1.303-1.465 2.442-1.465h.488v1.302h-.814c-1.302 0-2.116.977-2.116 2.279v4.721h-1.139zm4.232-4.07c0-1.139.488-2.279 1.302-3.093.814-.814 1.791-1.302 3.093-1.302 1.14 0 2.28.488 3.093 1.302.814.814 1.303 1.791 1.303 3.093 0 1.14-.489 2.279-1.303 3.093-.813.814-1.79 1.14-3.093 1.14-1.139 0-2.279-.489-3.093-1.303-.976-.651-1.302-1.79-1.302-2.93zm1.14 0c0 .977.325 1.628.814 2.279.651.651 1.302.977 2.279.977.976 0 1.628-.326 2.279-.814.651-.651.814-1.302.814-2.279 0-.977-.326-1.628-.814-2.279-.651-.651-1.303-.977-2.279-.977-.977 0-1.628.326-2.279.977-.489.488-.814 1.139-.814 2.116zm8.79 1.954c.163.651.977 1.302 1.954 1.302 1.302 0 1.791-.651 1.791-1.302 0-.326-.163-.651-.489-.977-.325-.163-.814-.488-1.628-.814-1.465-.651-2.116-1.14-2.116-2.442 0-1.302.977-2.116 2.442-2.116 1.139 0 1.953.488 2.279 1.465l-.977.488c-.325-.488-.814-.814-1.302-.814-.814 0-1.302.326-1.302.977s.488.977 1.79 1.465c1.628.651 2.442 1.303 2.442 2.605s-.977 2.279-2.93 2.279c-1.465 0-2.768-.651-3.093-1.954l1.139-.162zM42.86 83.815h-2.767V90c-.488-1.14-1.79-1.954-3.744-1.954-1.628 0-3.093.651-4.233 1.79-1.14 1.14-1.628 2.605-1.628 4.396 0 1.79.489 3.256 1.628 4.395 1.14 1.14 2.605 1.791 4.233 1.791 1.953 0 3.256-.65 4.07-1.79.162.65.488 1.14.976 1.465.489.325.977.325 1.628.325l-.163-16.604zm-3.744 13.023c-.65.651-1.628.977-2.604.977-.977 0-1.791-.326-2.442-.977-.651-.651-.977-1.628-.977-2.605 0-.977.326-1.953.977-2.605.651-.65 1.465-.976 2.442-.976.976 0 1.953.325 2.604.977.651.65.977 1.627.977 2.604 0 .977-.326 1.954-.977 2.605zm6.838-9.931c.976 0 1.627-.651 1.627-1.628 0-.977-.814-1.628-1.627-1.628-.977 0-1.628.651-1.628 1.628-.163.977.65 1.628 1.628 1.628zm1.465 1.628H44.65v8.954c0 1.953.977 2.93 2.768 2.93V88.535zm13.837-1.465c.977 0 1.628-.651 1.628-1.628 0-.977-.814-1.628-1.628-1.628-.977 0-1.628.651-1.628 1.628 0 .814.651 1.465 1.628 1.628zm1.139 1.465h-2.767v8.954c0 1.953.977 2.93 2.767 2.93h.163l-.163-11.884zm8.14-.325c-1.628 0-2.767.976-3.419 2.116v-1.628H64.35v11.884h2.767v-6.838c0-1.628 1.14-2.767 2.605-2.767 1.628 0 2.442.977 2.442 2.605v3.907c0 2.116.977 3.093 2.767 3.093v-7.814c0-2.768-1.79-4.558-4.395-4.558zm18.07.325h-2.768v1.628c-.488-1.14-1.79-1.953-3.744-1.953-1.628 0-3.093.65-4.233 1.79-1.14 1.14-1.627 2.605-1.627 4.395 0 1.791.488 3.256 1.627 4.396 1.14 1.14 2.605 1.791 4.233 1.791 1.953 0 3.256-.652 4.07-1.791.163.651.488 1.14.977 1.465.325.326.976.326 1.627.326l-.162-12.047zM85.023 97c-.65.651-1.628.977-2.604.977-.977 0-1.791-.326-2.442-.977-.651-.651-.977-1.628-.977-2.605 0-.976.326-1.953.977-2.604.65-.651 1.465-.977 2.442-.977.976 0 1.79.326 2.604.977.651.651.977 1.628.977 2.605 0 .976-.326 1.79-.977 2.604zM58.977 86.907h-1.302c-.977 0-1.628.814-1.954 1.465-.326.651-2.605 7.977-2.605 7.977s-.976-2.28-1.302-2.93c-.326-.651-1.14-1.14-2.116-1.14h-1.303l3.745 7.977h2.441l4.396-13.349zm96.046 1.465c-1.628 0-2.93.814-3.581 1.954v-1.791h-2.768v9.605c.163 1.465 1.14 2.279 2.768 2.279v-6.675c.163-1.79 1.302-2.767 3.256-2.767.488 0 .814 0 1.139.163v-2.768h-.814zm-23.116.163v-4.558h-2.767v4.558h-1.466v2.605h1.466v6.511c0 1.954.976 2.93 2.767 2.93h.163v-9.442h2.604v-2.604h-2.767zm-18.07 1.628c-.488-1.14-1.79-1.953-3.744-1.953-1.628 0-3.093.65-4.232 1.79-1.14 1.14-1.628 2.605-1.628 4.395 0 1.791.488 3.256 1.628 4.396 1.139 1.14 2.604 1.791 4.232 1.791 1.954 0 3.256-.652 4.07-1.791.163.651.488 1.14.977 1.465.488.326.976.326 1.628.326V88.535h-2.931v1.628zM113.023 97c-.651.651-1.628.977-2.604.977-.977 0-1.791-.326-2.442-.977-.651-.651-.977-1.628-.977-2.605 0-.976.326-1.953.977-2.604s1.465-.977 2.442-.977c.976 0 1.953.326 2.604.977.652.651.977 1.628.977 2.605.163.976-.325 1.953-.977 2.604zm52.744-8.302v1.79c-.488-1.139-1.79-1.953-3.744-1.953-1.628 0-3.093.651-4.232 1.79-1.14 1.14-1.628 2.605-1.628 4.396 0 1.79.488 3.256 1.628 4.395 1.139 1.14 2.604 1.791 4.232 1.791 1.954 0 3.256-.651 4.07-1.79.163.65.488 1.139.977 1.465.488.325.977.325 1.628.325V88.861l-2.931-.163zm-.813 8.465c-.652.651-1.628.977-2.605.977-.977 0-1.791-.326-2.442-.977-.651-.651-.977-1.628-.977-2.605 0-.977.326-1.953.977-2.604s1.465-.977 2.442-.977c.977 0 1.953.325 2.605.977.651.65.976 1.628.976 2.604.163.977-.325 1.954-.976 2.605zm-23.931-8.953c-1.79 0-3.256.65-4.558 1.79-1.139 1.14-1.791 2.768-1.791 4.395 0 1.791.652 3.256 1.791 4.396 1.302 1.14 2.768 1.791 4.558 1.791 1.791 0 3.256-.652 4.558-1.791 1.303-1.14 1.954-2.768 1.954-4.395 0-1.791-.651-3.256-1.791-4.396-1.302-1.14-2.767-1.79-4.721-1.79zm2.605 8.953c-.651.651-1.628.977-2.605.977-.976 0-1.953-.326-2.604-1.14-.652-.651-.977-1.628-.977-2.605 0-.976.325-1.953.977-2.604.651-.651 1.628-1.14 2.604-1.14.977 0 1.954.326 2.605 1.14.651.651.977 1.628.977 2.605.162 1.14-.163 1.953-.977 2.767zm-19.372-3.744c-.488-.163-1.14-.326-1.465-.489-.326-.162-.814-.325-.977-.488a.894.894 0 01-.488-.814c0-.651.488-.977 1.465-.977.977 0 1.79.326 2.279.977L126.698 90c-.814-1.14-2.117-1.79-3.744-1.79-1.14 0-2.117.325-2.931.976-.814.651-1.139 1.465-1.139 2.605 0 1.628.977 2.605 2.93 3.256.326.163 1.14.325 1.465.488.326.163.814.326 1.14.488.325.163.651.489.651.977 0 .651-.651 1.302-2.116 1.302-.814 0-1.466-.162-1.954-.488-1.139-.488-1.791-.325-2.442.163l-.488.488c.814 1.303 2.442 2.279 4.721 2.279 3.256 0 4.883-1.628 4.883-3.744-.325-1.79-1.302-2.767-3.418-3.581zM90.72 97v7.488h.49-.49V97z" fill="#000"/><path d="M101.465 89.837c-1.139-1.14-2.605-1.79-4.232-1.79-1.954 0-3.419.814-3.745 1.953v-1.79h-2.767v16.278h.488c1.465-.162 2.28-.976 2.442-2.604v-3.582c.489 1.14 1.79 1.954 3.744 1.954 1.628 0 3.093-.651 4.233-1.79 1.139-1.14 1.791-2.605 1.791-4.396-.326-1.628-.814-3.093-1.954-4.233zm-2.116 7c-.651.651-1.465.977-2.442.977-.977 0-1.79-.326-2.605-.977-.65-.651-.976-1.628-.976-2.604 0-.977.325-1.954.976-2.605s1.628-.977 2.605-.977c.977 0 1.79.326 2.442.977.651.651.977 1.628.977 2.605 0 .976-.326 1.953-.977 2.604z" fill="#000"/></svg>
